X: 36355
T: Sean McCusker's Farewell
R: jig
M: 6/8
K: Dminor
C|:A,DF DED|FGA GAc|dcA BAG|AFD GEC|
A,CF DED|FGA GAc|dcA BAG|1 AFD DCB,:|2 AFD DFA||
d3 gfd|c3 gec|af/g/a fga|gfd g2 a|
b2b aba|gfd g3|a2f fga|1 gfd fdc:|2 afd def||
gfd cAG|FDC FGA|BAG F3|GEC B,DF|
Adf gfd|cAG FAc|dcA G^FG|1 AFD D2g:|2 AFD GEC:|(A,3 A,3)||

